X: 21249
T: Keelman's Petition, The
R: reel
M: 4/4
K: Cmajor
|:c2 eg fddf|ecgc B2 GB|A2 GF EGfd|ef/g/ GB c2 C2:|
|:ef/g/ fe/d/ caac|Bggf ecBG|FaEg Dfgf|ef/g/ GB cGEC:|

